packages/icons/svg/Media_FullScreen_32px.svg

<svg xmlns="http://www.w3.org/2000/svg" viewBox="0 0 32 32"><path d="M23 25H9a2 2 0 01-2-2V9a2 2 0 012-2h14a2 2 0 012 2v14a2 2 0 01-2 2zM9 23h14V9H9z"/><path d="M4 11a1 1 0 01-1-1V5a2 2 0 012-2h5a1 1 0 010 2H5v5a1 1 0 01-1 1zM28 11a1 1 0 01-1-1V5h-5a1 1 0 010-2h5a2 2 0 012 2v5a1 1 0 01-1 1zM29 27a2 2 0 01-2 2h-5a1 1 0 110-2h5v-5a1 1 0 012 0zM10 29H5a2 2 0 01-2-2v-5a1 1 0 012 0v5h5a1 1 0 110 2z"/></svg>

<svg xmlns="http://www.w3.org/2000/svg" viewBox="0 0 32 32"><defs></defs><g id="Icon"><path  d="M23,25H9a2,2,0,0,1-2-2V9A2,2,0,0,1,9,7H23a2,2,0,0,1,2,2V23A2,2,0,0,1,23,25ZM9,23H23V9H9Z"/><path  d="M4,11a1,1,0,0,1-1-1V5A2,2,0,0,1,5,3h5a1,1,0,0,1,0,2H5v5A1,1,0,0,1,4,11Z"/><path  d="M28,11a1,1,0,0,1-1-1V5H22a1,1,0,0,1,0-2h5a2,2,0,0,1,2,2v5A1,1,0,0,1,28,11Z"/><path  d="M29,27a2,2,0,0,1-2,2H22a1,1,0,1,1,0-2h5V22a1,1,0,0,1,2,0Z"/><path  d="M10,29H5a2,2,0,0,1-2-2V22a1,1,0,0,1,2,0v5h5a1,1,0,1,1,0,2Z"/></g></svg>
